X:1
T:[ID 6-9]
T:[ID 6-9]
T:Bezeichnung standardisiert: Menuett Menuet 2.
T:Urheber unbekannt Erstbeleg: 1775 (Datum in der schriftlichen Quelle) Datum in der hier transkribierten schriftlichen Quelle: 1792
C:Urheber unbekannt
C:Erstbeleg: 1775 (Datum in der schriftlichen Quelle)
C:Datum in der hier transkribierten schriftlichen Quelle: 1792
%%score 1 2
L:1/8
M:3/4
K:D
V:1 treble nm="Primo"
V:2 treble nm="Secondo"
V:1
 af d2 d2 | e2 dc d2 | e3 gfa | g2 gefd | e3 gfa | g2 ge f2 | efgefd | e4 x2 :: d3 efd | e2 f2 g2 | %10
 f3 gaf | g2 a2 b2 | f3 gaf | g2 a2 b2 |{g} Tf2 edec | d6 :| %16
V:2
 !fermata!fd F2 F2 | G2 FE F2 | c3 edf | e2 ec d2 | c3 edf | e2 ec d2 | cdecdB | c6 :: F3 cdB | %9
 c2 d2 e2 | d3 efd | e2 f2 g2 | d3 efd | e2 f2 g2 | d2 GFGE | F6 :| %16

